X:1
T:Test Drive
T:Test Drive
T:(How to Train Your Dragon)
T:By John Powell Arr by Gabe Russell
T:Euphonium and Trombone Duet; Req. by Minkka Leave Suggestions for More Free Content and Access the Sheet Music from My Library! Live Life, Breathe Music!
T:© DreamWorks Studios (2010)
T:© DreamWorks Studios (2010)
T:© DreamWorks Studios (2010)
C:Comp: John Powell Arr: Sebastian Wolf Edited to Musescore: Torbjørn M. Brandrud
Z:© DreamWorks Studios (2010)
%%score 1 2
L:1/8
M:4/4
K:D
V:1 bass nm="Trombone" snm="Tbn."
V:2 bass nm="Euphonium" snm="Euph."
V:1
 z[Q:1/4=111]"^\n" A,,/D,/ | A,8- | A,4- A,3 A, | DA,DE CA,CD | B,A,A,G, G,F,E,F, | D,3 D, D,4 | %6
 D,3 D, D,3 A, | DA,DE CA,CD | B,A,A,G, G,F,E,F, | D,3 D, D,4 | D,3 D, D,3 A, || %11
"^A" [F,F]4 [G,G]4 | [E,E]2 [G,G]2 [F,F]4 | [A,A]2 [F,F]2 [G,G]4 | [E,E]2 [G,G]2 [F,F]4 | %15
 [D,D]4 [D,D]2 [D,D]2 | A, A,2 A, D,4 | G,,2 D,2 G,2 D,2 | A,,E,B,C D4 ||"^B" F,4 G,4 | %20
 E,3 F, F,4 | F,2 [D,D]2 [F,F]2 [A,A]2 | [E,E]3 [F,F] [F,F]4 | B,F,B,A, F,2 F,E, | A,2 EF B,2 B,C | %25
 D3 E DCB,A, | ^G,3 A, F,G,E,F, | ^G,/A,/G,/A,/ G,/A,/G,/A,/ G,/A,/G,/A,/E,B, | %28
 A,A,, A,A,, A,A,, A,A,, | A,A,, A,A,, DD, DD, ||"^C" D4 G,4 | E,2 G,F, F,4 | z2 F,2 G,3 F, | %33
 E,F,G,F, F,4 | z2 B,2 B,2 C2 | C3 A, A,4 | z2 B,2 B,2 C2 | C2 B,A, F,4 | %38
[Q:1/4=25] !~(!=F,4 !~)!!fermata!^E4 ||[K:A][Q:1/4=111]"^D" D,A,/A,/ D6 | G,4 (3=G,2 E,2 C,2 | %41
 A,2 A,2 (3G,2 ^E,2 D,2 | =F,4 (3^F,2 A,2 G,2 | F,4 (3F,2 B,2 G,2 | %44
 _E,/D,/=C,/D,/ E,/D,/C,/D,/ E,/D,/C,/D,/ E,/D,/C,/D,/ | %45
[Q:1/4=57] _E,/D,/=C,/D,/ E,/D,/C,/D,/ E,/D,/C,/D,/ E,/D,/C,/D,/ | %46
 _E,/D,/C,/D,/ E,/D,/C,/D,/[Q:1/4=56] E,/D,/C,/D,/[Q:1/4=54] =E,/F,/"^poco rit."G,/B,/ || %47
[K:E][Q:1/4=116]"^a tempo""^E" EB,EF DB,DE | CB,B,A, A,G,F,E, | B,,3 B,,/E,/ B,4 | E3 B, E,2 B,E, | %51
 G,E,G,D, A,E,A,E, | F,3 G, G,2 D,2 | C,2 E,2 G,2 B,2 | F3 G G4 | C2 CB, G,2 G,F, | %56
 F,3 G, ^A,2 CD | E3 F EDCB, | A, F,3 E,D,C,B,, | E,2 E,F, E,D,C,B,, | ^A,B,CD EFG[C^A] | %61
 EB,EF DB,DE | CB,B,A, A,G,F,E, | A,G,F,E,- E,4 |] %64
V:2
 z D,/A,,/ | D,3 D, D,4 | D,>D,- D,D, D,4 | D,3 D, D,4 | D,3 D, D,3 A, | DA,DE CA,CD | %6
 B,A,A,G, G,F,E,F, | D,3 D, D,4 | D,3 D, D,3 A, | DA,DE CA,CD | B,A,A,G, G,F,E,F, || %11
 F,3 D,/A,/ D4 | A,4 D,4 | D,3 D,/A,/ D4 | D4 DEDC | z2 B,2 B,2 C2 | C3 A, F,4 | z2 B,2 B,2 C2 | %18
 C2 B,A, F,4 || B,2 B,,2 D2 G,2 | E,2 A,2 D2 C2 | B,2 G,2 G,D,G,,D, | A,,E,A,E, D,2 C,2 | %23
 B,,F,DC F,CA,F, | A,E,A,E, E,B,,E,B,, | G,,D,B,D, B,D,B,D, | E,B,, E,2 ^G,4 | E,E, E,2 E,4 | %28
 D,2 D2 C3 A, | B,3 A, D,4 || F,3 D,/A,/ D4 | CA, E,2 D,4 | D,3 D,/A,/ D4 | A,G,F,E, D,A,,D,A,, | %34
 B,,2 D,2 B,4 | A,2 E,A, D4 | D,2 D,2 D,2 D,2 | F,3 F, D,4 | !~(![=F,,=F,]4 !~)!!fermata!C,4 || %39
[K:A] [D,,D,]2 [D,,D,]2 [D,,D,]2 [D,,D,]2 | [D,,D,]2 [D,,D,]2 [D,,D,]4 | %41
 z2 [D,,D,]2 [D,,D,]2 [D,,D,]2 | [D,,D,]2 [D,,D,]2 [D,,D,]2 [D,,D,]2 | %43
 [D,,D,]2 [D,,D,]2 [D,,D,]2 [D,,D,]2 | [A,,A,]2 [D,,D,]2 [D,,D,]2 [A,,A,]2 | %45
 [_E,,_E,]2 [E,,E,]2 [=E,,=E,]2 [E,,E,]2 | [=F,,=F,]2 [^F,,^F,]2 [=G,,=G,]2 [^G,,^G,]2 || %47
[K:E] B,,3 E, B,4 | E,6 B,2 | EB,EF DB,DE | CB,B,A, B,G,F,E, | C,4 A,,4 | B,,2 F,E, E,B,,D,B,, | %53
 C,G,,C,E, B,E,CA, | B,F,DB, E,B,,G,E, | C,C,G,C A,,E,A,E, | B,,F,B,B, F,C,F,C, | A,,A,CC EDCD | %58
 E2 EF EDCD | E2 EF EDCB, | F,,3 F, F,F, [F,,F,]2 | [E,,E,]8- | [E,,E,]8 | B,,C,D,E,- E,4 |] %64

